icons/tokens/0xC02aaA39b223FE8D0A0e5C4F27eAD9083C756Cc2/logo.svg

<svg xmlns="http://www.w3.org/2000/svg" width="32" height="32" viewBox="0 0 32 32">
  <g fill="none" transform="translate(0 .48)">
    <circle cx="14.418" cy="14.418" r="14.418" fill="#000"/>
    <path fill="#FF0079" d="M14.4183909,27.8068966 C21.8126584,27.8068966 27.8068966,21.8126583 27.8068966,14.4183908 C27.8068966,7.02412326 21.8126584,1.02988506 14.4183909,1.02988506 C7.02412329,1.02988506 1.02988509,7.02412326 1.02988509,14.4183908 C1.02988509,21.8126583 7.02412329,27.8068966 14.4183909,27.8068966 Z"/>
    <circle cx="17.508" cy="16.478" r="13.389" fill="#FFF"/>
    <path fill="#000" d="M17.508046,30.8965517 C9.54498862,30.8965517 3.08965517,24.4412183 3.08965517,16.4781609 C3.08965517,8.51510356 9.54498862,2.05977012 17.508046,2.05977012 C25.4711033,2.05977012 31.9264367,8.51510356 31.9264367,16.4781609 C31.9264367,24.4412183 25.4711033,30.8965517 17.508046,30.8965517 Z M17.508046,29.8666667 C24.9023135,29.8666667 30.8965517,23.8724285 30.8965517,16.4781609 C30.8965517,9.08389337 24.9023135,3.08965517 17.508046,3.08965517 C10.1137784,3.08965517 4.11954023,9.08389337 4.11954023,16.4781609 C4.11954023,23.8724285 10.1137784,29.8666667 17.508046,29.8666667 Z"/>
    <path fill="#000" d="M12.3465428,20.0053161 L10.8765867,20.0053161 L10.0520788,16.529454 C10.0215413,16.4057465 9.96948954,16.1500378 9.89592196,15.7623204 C9.82235439,15.3746029 9.78001896,15.1143684 9.76891442,14.9816092 C9.75225762,15.144541 9.71061622,15.4062841 9.64398897,15.7668462 C9.57736174,16.1274084 9.52600401,16.3846257 9.48991426,16.5385057 L8.66957048,20.0053161 L7.20377854,20.0053161 L5.6505388,13.3885057 L6.92061418,13.3885057 L7.69931615,17.0001437 C7.83534676,17.6669574 7.93389808,18.2447533 7.99497305,18.7335488 C8.01162986,18.5615652 8.04980114,18.2952963 8.10948805,17.9347342 C8.16917495,17.574172 8.22539084,17.2943257 8.2781374,17.0951868 L9.16510809,13.3885057 L10.3852133,13.3885057 L11.272184,17.0951868 C11.3110499,17.2611359 11.3596315,17.5145816 11.4179303,17.8555316 C11.4762292,18.1964815 11.5206467,18.4891511 11.5511841,18.7335488 C11.5789456,18.4982028 11.623363,18.204779 11.684438,17.8532686 C11.745513,17.5017583 11.8010348,17.2173862 11.8510053,17.0001437 L12.625543,13.3885057 L13.8956184,13.3885057 L12.3465428,20.0053161 Z M18.1680688,20.0053161 L14.6618279,20.0053161 L14.6618279,13.3885057 L18.1680688,13.3885057 L18.1680688,14.5380747 L15.9527241,14.5380747 L15.9527241,15.9908765 L18.0139941,15.9908765 L18.0139941,17.1404454 L15.9527241,17.1404454 L15.9527241,18.8466954 L18.1680688,18.8466954 L18.1680688,20.0053161 Z M21.7867426,20.0053161 L20.4958463,20.0053161 L20.4958463,14.5561782 L18.8426662,14.5561782 L18.8426662,13.3885057 L23.4399227,13.3885057 L23.4399227,14.5561782 L21.7867426,14.5561782 L21.7867426,20.0053161 Z M29.3655531,20.0053161 L28.0788211,20.0053161 L28.0788211,17.1494972 L25.6677599,17.1494972 L25.6677599,20.0053161 L24.3768636,20.0053161 L24.3768636,13.3885057 L25.6677599,13.3885057 L25.6677599,15.9818247 L28.0788211,15.9818247 L28.0788211,13.3885057 L29.3655531,13.3885057 L29.3655531,20.0053161 Z"/>
  </g>
</svg>

<svg viewBox="0 0 32 32"><g fill="none" transform="translate(0 .48)"><circle cx="14.418" cy="14.418" r="14.418" fill="#000"/><path fill="#FF0079" d="M14.418 27.807c7.395 0 13.389-5.994 13.389-13.389 0-7.394-5.994-13.388-13.389-13.388C7.024 1.03 1.03 7.024 1.03 14.418c0 7.395 5.994 13.389 13.388 13.389z"/><circle cx="17.508" cy="16.478" r="13.389" fill="#FFF"/><path fill="#000" d="M17.508 30.897c-7.963 0-14.418-6.456-14.418-14.419S9.545 2.06 17.508 2.06c7.963 0 14.418 6.455 14.418 14.418 0 7.963-6.455 14.419-14.418 14.419zm0-1.03c7.394 0 13.389-5.995 13.389-13.389 0-7.394-5.995-13.388-13.389-13.388-7.394 0-13.388 5.994-13.388 13.388s5.994 13.389 13.388 13.389z"/><path fill="#000" d="M12.347 20.005h-1.47l-.825-3.476a18.19 18.19 0 01-.156-.767 9.453 9.453 0 01-.127-.78c-.017.163-.058.424-.125.785-.067.36-.118.618-.154.772l-.82 3.466H7.204L5.65 13.39h1.27L7.699 17c.136.667.235 1.245.296 1.734.017-.172.055-.439.114-.8.06-.36.116-.64.17-.839l.886-3.706h1.22l.887 3.706c.039.166.088.42.146.76.058.341.103.634.133.879.028-.236.072-.53.133-.88.062-.352.117-.637.167-.854l.775-3.611h1.27l-1.55 6.616zm5.821 0h-3.506V13.39h3.506v1.15h-2.215v1.452h2.061v1.15h-2.061v1.706h2.215v1.158zm3.619 0h-1.291v-5.449h-1.653V13.39h4.597v1.167h-1.653v5.45zm7.579 0h-1.287V17.15h-2.411v2.856h-1.291V13.39h1.29v2.593h2.412V13.39h1.287v6.616z"/></g></svg>
